ifelsecloud-logo.svg

<svg width="144" height="144" viewBox="0 0 144 144" fill="none" xmlns="http://www.w3.org/2000/svg">
<path d="M72 8H111C117.63 8 123.989 10.6339 128.678 15.3223C133.366 20.0107 136 26.3696 136 33V72H72V8Z" fill="#EF7A33"/>
<path d="M72 72H136V111C136 117.63 133.366 123.989 128.678 128.678C123.989 133.366 117.63 136 111 136H72V72Z" fill="#0D678D"/>
<path d="M8 72H72V136H33C26.3696 136 20.0107 133.366 15.3223 128.678C10.6339 123.989 8 117.63 8 111V72Z" fill="#F4C433"/>
<path d="M33 8H72V72H8V33C8 26.3696 10.6339 20.0107 15.3223 15.3223C20.0107 10.6339 26.3696 8 33 8Z" fill="#63C0C4"/>
<g filter="url(#filter0_d_103_10)">
<path d="M124 72C124 43.2812 100.719 20 72 20C43.2812 20 20 43.2812 20 72C20 100.719 43.2812 124 72 124C100.719 124 124 100.719 124 72Z" fill="white"/>
</g>
<path d="M90.29 67.36C97.8618 67.36 104 61.2353 104 53.68C104 46.1247 97.8618 40 90.29 40C82.7182 40 76.58 46.1247 76.58 53.68C76.58 61.2353 82.7182 67.36 90.29 67.36Z" fill="#014161"/>
<path d="M90.29 103.83C97.8618 103.83 104 97.7052 104 90.15C104 82.5947 97.8618 76.47 90.29 76.47C82.7182 76.47 76.58 82.5947 76.58 90.15C76.58 97.7052 82.7182 103.83 90.29 103.83Z" fill="#014161"/>
<path d="M53.71 104C61.2818 104 67.42 97.8751 67.42 90.3199C67.42 82.7646 61.2818 76.6399 53.71 76.6399C46.1382 76.6399 40 82.7646 40 90.3199C40 97.8751 46.1382 104 53.71 104Z" fill="#014161"/>
<path d="M62 54.0901C62.0105 52.98 61.8022 51.8788 61.3869 50.8493C60.9717 49.8198 60.3577 48.8822 59.58 48.0901C58.8313 47.2887 57.9231 46.6531 56.9138 46.2243C55.9044 45.7954 54.8165 45.5828 53.72 45.6001C51.5454 45.6383 49.47 46.5164 47.9285 48.0505C46.3869 49.5846 45.4987 51.6558 45.45 53.8301V54.3601L40.9 56.3601V54.1501C40.8907 52.4512 41.2193 50.7674 41.8665 49.1966C42.5137 47.6258 43.4666 46.1993 44.67 45.0001C45.828 43.7598 47.234 42.777 48.7966 42.1154C50.3592 41.4539 52.0434 41.1284 53.74 41.1601C55.4349 41.1312 57.1172 41.455 58.6804 42.1109C60.2435 42.7667 61.6532 43.7404 62.82 44.9701C64.031 46.1991 64.982 47.6596 65.616 49.2644C66.25 50.8691 66.554 52.5852 66.51 54.3101V54.3701C66.5322 56.1064 66.1657 57.8258 65.4372 59.4021C64.7087 60.9784 63.6368 62.3718 62.3 63.4801C62.08 63.8101 59.78 65.2401 55.42 67.7601C54.9294 67.9787 54.4947 68.3054 54.1483 68.7159C53.802 69.1263 53.553 69.6098 53.42 70.1301C53.3332 70.6532 53.3332 71.187 53.42 71.7101L48.87 73.7101C48.87 73.5501 48.87 72.1701 48.95 69.5501C48.99 67.3101 51.0966 65.0267 55.27 62.7001C56.7842 61.8942 58.2291 60.9643 59.59 59.9201C60.4096 59.1964 61.0529 58.2948 61.4706 57.2844C61.8883 56.2739 62.0694 55.1813 62 54.0901Z" fill="#004261"/>
<path d="M48 75.1499V73.7099C48 73.5499 48 72.1599 48.09 69.5299C48.18 66.8999 50.35 64.3899 54.88 61.8699C56.3462 61.0918 57.7444 60.192 59.06 59.1799C59.77 58.5462 60.3243 57.7572 60.6798 56.8745C61.0354 55.9917 61.1826 55.0388 61.11 54.0899C61.1304 53.1028 60.9543 52.1215 60.5921 51.2031C60.2298 50.2846 59.6887 49.4474 59 48.7399C58.3324 48.031 57.5242 47.4691 56.6271 47.0903C55.73 46.7115 54.7637 46.524 53.79 46.5399C52.8182 46.5294 51.8549 46.7213 50.9613 47.1035C50.0678 47.4858 49.2636 48.0498 48.6 48.7599C47.9104 49.4092 47.3618 50.1935 46.9885 51.0641C46.6151 51.9346 46.425 52.8727 46.43 53.8199V54.9999L40 57.8399V54.1499C39.9788 52.3232 40.3216 50.5105 41.0084 48.8176C41.6951 47.1247 42.7121 45.5856 44 44.2899C45.2419 42.9615 46.7487 41.9085 48.423 41.1988C50.0972 40.4891 51.9018 40.1386 53.72 40.1699C55.5342 40.1415 57.3345 40.4894 59.0074 41.1916C60.6804 41.8938 62.1897 42.9352 63.44 44.2499C64.7417 45.5645 65.7664 47.1268 66.4535 48.8445C67.1405 50.5622 67.476 52.4003 67.44 54.2499C67.4723 56.1147 67.0908 57.9634 66.3231 59.6631C65.5554 61.3629 64.4205 62.8713 63 64.0799C62.73 64.3999 61.82 65.0799 55.9 68.5299C55.5318 68.6892 55.2041 68.9292 54.941 69.2321C54.678 69.5349 54.4862 69.893 54.38 70.2799C54.3163 70.7075 54.3163 71.1423 54.38 71.5699L54.44 72.2499L48 75.1499ZM53.75 44.6499C54.9682 44.633 56.1764 44.8706 57.2975 45.3476C58.4185 45.8246 59.4275 46.5304 60.26 47.4199C62.0008 49.201 62.9645 51.5995 62.94 54.0899C63.0154 55.3182 62.8096 56.5475 62.3383 57.6843C61.8669 58.8211 61.1425 59.8353 60.22 60.6499C58.8108 61.7299 57.3159 62.6931 55.75 63.5299C51.97 65.6399 49.95 67.7199 49.92 69.5299C49.92 70.6499 49.92 71.5299 49.86 72.2199L52.51 71.0199C52.4597 70.5914 52.4902 70.1572 52.6 69.7399C52.7671 69.1157 53.0684 68.5355 53.483 68.0398C53.8975 67.5441 54.4152 67.1448 55 66.8699C57.2869 65.674 59.4977 64.3382 61.62 62.8699C62.8844 61.8463 63.9009 60.55 64.5936 59.0781C65.2863 57.6061 65.6372 55.9966 65.62 54.3699C65.6731 52.7578 65.3962 51.152 64.8064 49.6508C64.2165 48.1495 63.3262 46.7847 62.19 45.6399C61.1105 44.4939 59.8022 43.5875 58.35 42.9794C56.8978 42.3713 55.334 42.0751 53.76 42.1099C52.1854 42.0734 50.6209 42.3708 49.1696 42.9827C47.7183 43.5946 46.4131 44.507 45.34 45.6599C44.2145 46.776 43.3254 48.1074 42.7258 49.5747C42.1262 51.042 41.8283 52.615 41.85 54.1999V54.9999L44.57 53.7699C44.6416 51.3654 45.6362 49.0809 47.3473 47.3902C49.0585 45.6995 51.3549 44.7325 53.76 44.6899L53.75 44.6499Z" fill="#004261"/>
<defs>
<filter id="filter0_d_103_10" x="0" y="0" width="144" height="144" filterUnits="userSpaceOnUse" color-interpolation-filters="sRGB">
<feFlood flood-opacity="0" result="BackgroundImageFix"/>
<feColorMatrix in="SourceAlpha" type="matrix" values="0 0 0 0 0 0 0 0 0 0 0 0 0 0 0 0 0 0 127 0" result="hardAlpha"/>
<feOffset/>
<feGaussianBlur stdDeviation="10"/>
<feComposite in2="hardAlpha" operator="out"/>
<feColorMatrix type="matrix" values="0 0 0 0 0 0 0 0 0 0 0 0 0 0 0 0 0 0 0.25 0"/>
<feBlend mode="normal" in2="BackgroundImageFix" result="effect1_dropShadow_103_10"/>
<feBlend mode="normal" in="SourceGraphic" in2="effect1_dropShadow_103_10" result="shape"/>
</filter>
</defs>
</svg>

<?xml version="1.0" encoding="utf-8"?>
<svg version="1.2" baseProfile="tiny" id="Layer_1" xmlns="http://www.w3.org/2000/svg" xmlns:xlink="http://www.w3.org/1999/xlink"
	 x="0px" y="0px" viewBox="0 0 144 144" overflow="visible" xml:space="preserve">
<title>If Else Cloud Ltd.</title>
<desc>If Else Cloud - Smart Manufacturing Software</desc>
<path fill="#EF7A33" d="M72,8h39c6.6,0,13,2.6,17.7,7.3c4.7,4.7,7.3,11,7.3,17.7v39H72V8z"/>
<path fill="#0D678D" d="M72,72h64v39c0,6.6-2.6,13-7.3,17.7c-4.7,4.7-11,7.3-17.7,7.3H72V72z"/>
<path fill="#F4C433" d="M8,72h64v64H33c-6.6,0-13-2.6-17.7-7.3C10.6,124,8,117.6,8,111V72z"/>
<path fill="#63C0C4" d="M33,8h39v64H8V33c0-6.6,2.6-13,7.3-17.7S26.4,8,33,8z"/>
<g>
	<path fill="#FFFFFF" d="M124,72c0-28.7-23.3-52-52-52c-28.7,0-52,23.3-52,52c0,28.7,23.3,52,52,52C100.7,124,124,100.7,124,72z"/>
</g>
<path fill="#014161" d="M90.3,67.4c7.6,0,13.7-6.1,13.7-13.7S97.9,40,90.3,40s-13.7,6.1-13.7,13.7S82.7,67.4,90.3,67.4z"/>
<path fill="#014161" d="M90.3,103.8c7.6,0,13.7-6.1,13.7-13.7c0-7.6-6.1-13.7-13.7-13.7s-13.7,6.1-13.7,13.7
	C76.6,97.7,82.7,103.8,90.3,103.8z"/>
<path fill="#014161" d="M53.7,104c7.6,0,13.7-6.1,13.7-13.7c0-7.6-6.1-13.7-13.7-13.7S40,82.8,40,90.3C40,97.9,46.1,104,53.7,104z"
	/>
<path fill="#004261" d="M62,54.1c0-1.1-0.2-2.2-0.6-3.2c-0.4-1-1-2-1.8-2.8c-0.7-0.8-1.7-1.4-2.7-1.9c-1-0.4-2.1-0.6-3.2-0.6
	c-2.2,0-4.2,0.9-5.8,2.5c-1.5,1.5-2.4,3.6-2.5,5.8v0.5l-4.5,2v-2.2c0-1.7,0.3-3.4,1-5c0.6-1.6,1.6-3,2.8-4.2
	c1.2-1.2,2.6-2.2,4.1-2.9c1.6-0.7,3.2-1,4.9-1c1.7,0,3.4,0.3,4.9,1c1.6,0.7,3,1.6,4.1,2.9c1.2,1.2,2.2,2.7,2.8,4.3
	c0.6,1.6,0.9,3.3,0.9,5v0.1c0,1.7-0.3,3.5-1.1,5c-0.7,1.6-1.8,3-3.1,4.1c-0.2,0.3-2.5,1.8-6.9,4.3c-0.5,0.2-0.9,0.5-1.3,1
	c-0.3,0.4-0.6,0.9-0.7,1.4c-0.1,0.5-0.1,1.1,0,1.6l-4.5,2c0-0.2,0-1.5,0.1-4.2c0-2.2,2.1-4.5,6.3-6.9c1.5-0.8,3-1.7,4.3-2.8
	c0.8-0.7,1.5-1.6,1.9-2.6C61.9,56.3,62.1,55.2,62,54.1z"/>
<path fill="#004261" d="M48,75.1v-1.4c0-0.2,0-1.6,0.1-4.2s2.3-5.1,6.8-7.7c1.5-0.8,2.9-1.7,4.2-2.7c0.7-0.6,1.3-1.4,1.6-2.3
	c0.4-0.9,0.5-1.8,0.4-2.8c0-1-0.2-2-0.5-2.9c-0.4-0.9-0.9-1.8-1.6-2.5c-0.7-0.7-1.5-1.3-2.4-1.6c-0.9-0.4-1.9-0.6-2.8-0.6
	c-1,0-1.9,0.2-2.8,0.6c-0.9,0.4-1.7,0.9-2.4,1.7c-0.7,0.6-1.2,1.4-1.6,2.3c-0.4,0.9-0.6,1.8-0.6,2.8V55L40,57.8v-3.7
	c0-1.8,0.3-3.6,1-5.3c0.7-1.7,1.7-3.2,3-4.5c1.2-1.3,2.7-2.4,4.4-3.1c1.7-0.7,3.5-1.1,5.3-1c1.8,0,3.6,0.3,5.3,1
	c1.7,0.7,3.2,1.7,4.4,3.1c1.3,1.3,2.3,2.9,3,4.6c0.7,1.7,1,3.6,1,5.4c0,1.9-0.3,3.7-1.1,5.4c-0.8,1.7-1.9,3.2-3.3,4.4
	c-0.3,0.3-1.2,1-7.1,4.4c-0.4,0.2-0.7,0.4-1,0.7c-0.3,0.3-0.5,0.7-0.6,1c-0.1,0.4-0.1,0.9,0,1.3l0.1,0.7L48,75.1z M53.8,44.6
	c1.2,0,2.4,0.2,3.5,0.7c1.1,0.5,2.1,1.2,3,2.1c1.7,1.8,2.7,4.2,2.7,6.7c0.1,1.2-0.1,2.5-0.6,3.6c-0.5,1.1-1.2,2.2-2.1,3
	c-1.4,1.1-2.9,2-4.5,2.9c-3.8,2.1-5.8,4.2-5.8,6c0,1.1,0,2-0.1,2.7l2.6-1.2c-0.1-0.4,0-0.9,0.1-1.3c0.2-0.6,0.5-1.2,0.9-1.7
	c0.4-0.5,0.9-0.9,1.5-1.2c2.3-1.2,4.5-2.5,6.6-4c1.3-1,2.3-2.3,3-3.8c0.7-1.5,1-3.1,1-4.7c0.1-1.6-0.2-3.2-0.8-4.7
	c-0.6-1.5-1.5-2.9-2.6-4c-1.1-1.1-2.4-2.1-3.8-2.7c-1.5-0.6-3-0.9-4.6-0.9c-1.6,0-3.1,0.3-4.6,0.9c-1.5,0.6-2.8,1.5-3.8,2.7
	c-1.1,1.1-2,2.4-2.6,3.9c-0.6,1.5-0.9,3-0.9,4.6V55l2.7-1.2c0.1-2.4,1.1-4.7,2.8-6.4C49.1,45.7,51.4,44.7,53.8,44.6L53.8,44.6z"/>
</svg>
